editor/icons/Vector2i.svg

<svg height="12" viewBox="0 0 16 12" width="16" xmlns="http://www.w3.org/2000/svg"><path d="m8 2v2h1c.55228 0 1 .44772 1 1s-.44772 1-1 1c-.71466-.0001248-1.3751.38109-1.7324 1-.17472.30426-.26633.64914-.26562 1h-.002v2h5v-2h-3c1.0717-.0001344 2.0619-.57191 2.5977-1.5.5359-.9282.5359-2.0718 0-3-.53578-.92809-1.526-1.4999-2.5977-1.5zm-7 2v6h2c1.6569 0 3-1.3431 3-3v-3h-2v3c0 .55228-.44772 1-1 1v-4z" fill="#ac73f1"/><path d="m8 2v2h1c.55228 0 1 .44772 1 1s-.44772 1-1 1c-.71466-.0001248-1.3751.38109-1.7324 1-.17472.30426-.26633.64914-.26562 1h-.001953v2h5v-2h-3c1.0717-.0001344 2.0619-.57191 2.5977-1.5.5359-.9282.5359-2.0718 0-3-.53583-.92809-1.526-1.4999-2.5977-1.5z" fill="#fff" fill-opacity=".39216"/><path d="m13 2v2h2v-2zm0 4v4h2v-4z" fill="#5abbef"/></svg>

<svg height="12" viewBox="0 0 16 12" width="16" xmlns="http://www.w3.org/2000/svg"><path d="M8 2v2h1a1 1 0 0 1 0 2 2 2 0 0 0-2 2v2h5V8H9a3 3 0 0 0 0-6zM1 4v6h2a3 3 0 0 0 3-3V4H4v3a1 1 0 0 1-1 1V4z" fill="#ac73f1"/><path d="M8 2v2h1a1 1 0 0 1 0 2 2 2 0 0 0-2 2v2h5V8H9a3 3 0 0 0 0-6z" fill="#fff" fill-opacity=".4"/><path d="M13 2v2h2V2zm0 4v4h2V6z" fill="#5abbef"/></svg>
